svgs/duotone/circle-0.svg

<svg xmlns="http://www.w3.org/2000/svg" viewBox="0 0 512 512"><!-- Font Awesome Pro 6.0.0-alpha2 by @fontawesome - https://fontawesome.com License - https://fontawesome.com/license (Commercial License) --><defs><style>.fa-secondary{opacity:.4}</style></defs><path d="M256 176C229.531 176 208 197.531 208 224V288C208 314.469 229.531 336 256 336S304 314.469 304 288V224C304 197.531 282.469 176 256 176ZM256 16C123.451 16 16 123.451 16 256S123.451 496 256 496S496 388.549 496 256S388.549 16 256 16ZM352 288C352 340.938 308.938 384 256 384S160 340.938 160 288V224C160 171.062 203.062 128 256 128S352 171.062 352 224V288Z" class="fa-secondary"/><path d="M256 128C203.062 128 160 171.062 160 224V288C160 340.938 203.062 384 256 384S352 340.938 352 288V224C352 171.062 308.938 128 256 128ZM304 288C304 314.469 282.469 336 256 336S208 314.469 208 288V224C208 197.531 229.531 176 256 176S304 197.531 304 224V288Z" class="fa-primary"/></svg>

<svg xmlns="http://www.w3.org/2000/svg" viewBox="0 0 512 512"><!--! Font Awesome Pro 6.3.0 by @fontawesome - https://fontawesome.com License - https://fontawesome.com/license (Commercial License) Copyright 2023 Fonticons, Inc. --><defs><style>.fa-secondary{opacity:.4}</style></defs><path class="fa-primary" d="M256 128C203.1 128 160 171.1 160 224v64c0 52.94 43.06 96 96 96s96-43.06 96-96V224C352 171.1 308.9 128 256 128zM304 288c0 26.47-21.53 48-48 48S208 314.5 208 288V224c0-26.47 21.53-48 48-48s48 21.53 48 48V288z"/><path class="fa-secondary" d="M256 176C229.5 176 208 197.5 208 224v64c0 26.47 21.53 48 48 48s48-21.53 48-48V224C304 197.5 282.5 176 256 176zM256 0C114.6 0 0 114.6 0 256s114.6 256 256 256s256-114.6 256-256S397.4 0 256 0zM352 288c0 52.94-43.06 96-96 96s-96-43.06-96-96V224c0-52.94 43.06-96 96-96s96 43.06 96 96V288z"/></svg>
